X: 20161
T: KIND ROBIN LO'ES ME
Q: "Slow"
%R: shottish, march
B: "Edinburgh Repository of Music" v.2 p.16 #1
F: http://digital.nls.uk/special-collections-of-printed-music/pageturner.cfm?id=87776133
Z: 2015 John Chambers <jc:trillian.mit.edu>
M: C
L: 1/8
K: C
G>A |\
c2c2 c3e | d>e{e}d>c {B}A2G>A | c2c2 c3e | d>cde g3a |\
c2c2 c'2e>g | {f}f>e {e}d>c {B}A2 G>A | c2c2 a2g>e | g3e c2 :|
|: e>f |\
g2ag {f}e2c'e | {g}f>e {e}d>c {B}A2 e>f | g2a>g {g}f>e {e}d>c | d2e>g {b}a3c' |\
g2ab c'2eg | {g}f>e {e}d>c {B}A2 G>A | c2c2 a2g>e | g3e c2 :|
